X:34
T: Die Gedanken sind frei, S. 64
N: R0058
O: Luxemburg
S: D'Fraen um Kanddaaf an der aler Zeit, Luxemburg 1929]
R: ??]
M: 3/4
L: 1/8
K: C
GG | c2c2ec | G4
G2 | F2D2G2 | E2C2
G2 | c2c2ec | G4
G2 | F2D2G2 | E2C2
c2 | B2d3B | c2e2
c2 | B2d3B | c2e2
c2 | A2A2cA | G4
Ge | edc2B2 | c4

